dist/svg/attach.svg

<svg width="16" height="16" viewBox="0 0 16 16" fill="rgb(34, 34, 34)" xmlns="http://www.w3.org/2000/svg"><title>attach</title><path d="M4.188 15.5C4.182 15.5 4.175 15.5 4.168 15.5C3.306 15.5 2.523 15.166 1.94 14.62L1.942 14.622C1.362 14.083 1 13.316 1 12.464C1 11.612 1.362 10.845 1.94 10.308L1.942 10.306L9.19 3.44799C9.541 3.12299 10.012 2.92299 10.53 2.92299C11.048 2.92299 11.519 3.12299 11.871 3.44899L11.87 3.44799C12.219 3.77299 12.437 4.23499 12.437 4.74799C12.437 5.26099 12.219 5.72299 11.871 6.04699L11.87 6.04799L7.317 10.356L6.448 9.46999L11.001 5.16199C11.114 5.05899 11.185 4.91199 11.185 4.74699C11.185 4.58199 11.115 4.43599 11.003 4.33399C10.879 4.21999 10.713 4.14899 10.531 4.14899C10.349 4.14899 10.183 4.21899 10.059 4.33399L2.811 11.192C2.467 11.509 2.252 11.961 2.252 12.463C2.252 12.965 2.467 13.418 2.809 13.733L2.81 13.734C3.171 14.068 3.655 14.273 4.188 14.273C4.721 14.273 5.205 14.068 5.567 13.733L5.566 13.734L12.813 6.87599C13.388 6.34499 13.747 5.58799 13.747 4.74699C13.747 3.90599 13.388 3.14799 12.815 2.61999L12.813 2.61799C12.215 2.06499 11.412 1.72599 10.529 1.72599C9.646 1.72599 8.844 2.06499 8.243 2.61999L8.245 2.61799L3.715 6.90499L2.846 6.01899L7.376 1.73199C8.202 0.967993 9.31 0.498993 10.528 0.498993C11.746 0.498993 12.855 0.967993 13.683 1.73399L13.68 1.73099C14.491 2.48399 14.998 3.55599 14.998 4.74599C14.998 5.93599 14.492 7.00899 13.683 7.75899L13.68 7.76099L6.433 14.619C5.852 15.163 5.068 15.497 4.207 15.497C4.2 15.497 4.193 15.497 4.185 15.497L4.188 15.5Z" fill="rgb(34, 34, 34)" fill-opacity="1.00"/></svg>

<!-- Generated by Trend Micro Style Portal -->
<svg version="1.1" xmlns="http://www.w3.org/2000/svg" width="16" height="16" viewBox="0 0 16 16">
  <title>attach</title>
  <path fill="rgb(34,34,34)" d="M4.188 15.5c-0.006 0-0.013 0-0.020 0-0.862 0-1.645-0.334-2.228-0.88l0.002 0.002c-0.58-0.539-0.942-1.306-0.942-2.158s0.362-1.619 0.94-2.156l0.002-0.002 7.248-6.858c0.351-0.325 0.822-0.525 1.34-0.525s0.989 0.2 1.341 0.526l-0.001-0.001c0.349 0.325 0.567 0.787 0.567 1.3s-0.218 0.975-0.566 1.299l-0.001 0.001-4.553 4.308-0.869-0.886 4.553-4.308c0.113-0.103 0.184-0.25 0.184-0.415s-0.070-0.311-0.182-0.413l-0-0c-0.124-0.114-0.29-0.185-0.472-0.185s-0.348 0.070-0.472 0.185l0-0-7.248 6.858c-0.344 0.317-0.559 0.769-0.559 1.271s0.215 0.955 0.557 1.27l0.001 0.001c0.361 0.334 0.845 0.539 1.378 0.539s1.017-0.205 1.379-0.54l-0.001 0.001 7.247-6.858c0.575-0.531 0.934-1.288 0.934-2.129s-0.359-1.599-0.932-2.127l-0.002-0.002c-0.598-0.553-1.401-0.892-2.284-0.892s-1.685 0.339-2.286 0.894l0.002-0.002-4.53 4.287-0.869-0.886 4.53-4.287c0.826-0.764 1.934-1.233 3.152-1.233s2.327 0.469 3.155 1.235l-0.003-0.003c0.811 0.753 1.318 1.825 1.318 3.015s-0.506 2.263-1.315 3.013l-0.003 0.002-7.247 6.858c-0.581 0.544-1.365 0.878-2.226 0.878-0.007 0-0.014-0-0.022-0h0.001z"></path>
</svg>
